X:1
T:Title
%%score { ( 1 4 5 ) | ( 2 3 ) }
L:1/8
Q:1/4=100
M:4/4
K:Ab
V:1 treble nm="Grand Piano"
V:4 treble 
V:5 treble 
V:2 bass 
V:3 bass 
V:1
 cccc BAGA | B4 F4 | BBBB =ABcB | E8[K:bass][K:treble] | AAAA GABA | A4 G4 | BBBB cBFc | %7
w: Florence~Williams~Falconer * * * * * * *|||||||
[M:9/8] B6- B z z |[M:3/4] [Ec]2 [Ac]2 [Bd]2 | z2 [df]4 | [F=d]6 | [B=d]6 | [ce]2 z2 z d | %13
w: ||||||
 [ce]2 z2 z d | F2- [F-ce]2 [Fcf]2 | [cg]2 [cf]2 [ce]2 | [Ec]2 [Ac]2 [Bd]2 | z2 [df]4 | [F=d]6 | %19
w: ||||||
 [B=d]6 | [Ed]2 [Bd]2 [ce]2 | [df]4 z2 | [Ac]6- | [Ac]4 z2 |] %24
w: |||||
V:2
 z[K:treble] [EA][EA][EA][K:bass] z [CE][CE][CE] | z B,B,B, z G,G,G, | %2
 z [DE][DE][DE] z[K:treble] [DG][DG][DG] | z [E,A,][F,A,][G,A,] z A, z A, | z [CE][CE][CE] z EEE | %5
 z B,B,B, z B,B,B, | z[K:treble] [=DA][DA][DA][K:bass] z[K:treble] [DF]D[DF] | %7
[M:9/8][K:bass] [E,D]2- [E,-B,D-] [E,-A,D-] [E,G,D]2- [E,G,D] z z |[M:3/4] A,,2 [E,A,C]2 [E,A,C]2 | %9
 F,,2 [F,=A,E]2 z[K:treble] c | B,,2 A,2 A,2 | B,,2 A,2 A,2 | E,,2 [E,G,D]2 z E | %13
 E,,2 [E,G,D]2 z G | A,,2 [E,A,C]2 [E,A,C]2 | E2- [E,A,CE]2 [E,A,C]2 | A,,2 [E,A,C]2 [E,A,C]2 | %17
 F,,2 [F,=A,E]2 z[K:treble] c | B,,2 A,2 A,2 | B,,2 A,2 A,2 | E,,2 [E,G,D]2 [E,G,D]2 | %21
 E,,2 E,2 G2 | [A,,A,]2 E,2 C,2 | A,,4 z2 |] %24
V:3
 A,,4[K:treble][K:bass] A,,4 | A,,4 A,,4 | G,,4 E,,4[K:treble] | A,,8 | A,,4 C,4 | B,,4 B,,4 | %6
 [B,,,B,,]4[K:treble][K:bass] [B,,A,]4[K:treble] |[M:9/8][K:bass] .G,3 z3 z3 |[M:3/4] x6 | %9
 z2 z2 [F,=A,]2[K:treble] | x6 | x6 | z2 z2 [E,G,]2 | z2 z2 [E,G,]2 | x6 | E,,2 z2 z2 | x6 | %17
 z2 z2 [F,=A,]2[K:treble] | x6 | x6 | x6 | x6 | x6 | x6 |] %24
V:4
 x8 | z DDD z B,B,B, | x8 | z CCC[K:bass] z C z[K:treble] C | x8 | z FFF z EEE | x8 | %7
[M:9/8] z2 G F E2- E z z |[M:3/4] x6 | [ce]2 z2 z e | z2 [B,=D]2 [B,D]2 | z2 [B,=D]2 [B,D]2 | %12
 z2 [Bd]4 | z2 [Bd]4 | c2 z2 z2 | x6 | x6 | [ce]2 z2 z e | z2 [B,=D]2 [B,D]2 | z2 [B,=D]2 [B,D]2 | %20
 x6 | z2 [G,B,]2 e2 | x6 | x6 |] %24
V:5
 x8 | x8 | x8 | z4[K:bass] F,2 E,2[K:treble] | x8 | x8 | x8 |[M:9/8] x9 |[M:3/4] x6 | z2 z2 E2 | %10
 x6 | x6 | z2 z2 D2 | z2 z2 D2 | x6 | x6 | x6 | z2 z2 E2 | x6 | x6 | x6 | x6 | x6 | x6 |] %24

